!!!OTL: 858. Das Wirthshaus an der Lahn.
!!!ARE: Europa, Mitteleuropa, Deutschland, Rheinland
!!!SCT: E0858
!!!TXL: @@DE
!!!YEM: Copyright 1995, estate of Helmut Schaffrath.
**kern	**text
*ICvox	*
!! Mixed meters:  3/4; 2/4
*M2/4	*
*k[f#c#]	*
*D:	*
!LO:TX:a:t=Mäßig geschwind.	!
{8A	Es
8d	ſteht
8e	ein
=1	=1
4f#	Wirthshaus
4f#	.
8e	an
8e	der
=2	=2
4d	Lahn,
8r}	.
{8dd	da
8cc#	hal-
8b	-ten
=3	=3
4cc#	al-
4a	-le
8b	Fuhr-
8b	-leut
=4	=4
4a;	an.
8r}	.
{8a	Die
=5	=5
8a	Wirthin
8a	.
8a	ſitʒt
8dd	am
=6	=6
4dd	O-
8b	-fen,
8b}	die
=7	=7
{8b	Gä-
8b	-ſte
8dd	ſi-
8b	-tʒen
=8	=8
8b	um
16aL	den
16g#J	.
8a}	Tiſch,
{(16f#L	den
16gnJ)	.
=9	=9
8a	Wein
8a	will
16bL	Nie-
16aJ	.
16gL	-mand
16f#J	.
=10	=10
(>4g	lo-
4a)	.
=11	=11
4f#	-ben.
8r}	.
==	==
!!!AGN: Studenten - Lied, Erotik
!!!ONB: ESAC (Essen Associative Code) Database: ERK2
!!!AMT: irregular
!!!AIN: vox
!!!EED: Helmut Schaffrath
!!!EEV: 1.0
!!!RDF**kern: > = above
!!!GTL: Hochzeits- und Ehrstandslieder, nebst Nonnenklagen
!!!URL-scan: https://rosdok.uni-rostock.de/mcrviewer/recordIdentifier/rosdok_ppn745177662/iview2/phys_0657.iview2?x=84.36023866217738&y=308.88346672570333&scale=0.7029437510502773&rotation=0&layout=singlePageLayout
!!!ENC: Anna Maria Matuszewska
!!!EEV: 2024/12/18
*-	*-
